assets/Banana/Flat/banana_flat.svg

<svg width="32" height="32" viewBox="0 0 32 32" fill="none" xmlns="http://www.w3.org/2000/svg">
<path d="M2 26.4314C2 25.7015 2.59173 25.1097 3.32167 25.1097H4.31294C5.04287 25.1097 5.6346 25.7015 5.6346 26.4314C5.6346 27.1613 5.04287 27.7531 4.31293 27.7531H3.32167C2.59173 27.7531 2 27.1613 2 26.4314Z" fill="#F3AD61"/>
<path d="M19.7832 18H29.2175C29.9129 18 30.2627 17.1238 29.7684 16.6081L27.5899 14.3356C25.8828 12.5548 23.1158 12.5548 21.4086 14.3356L19.2302 16.6081C18.7379 17.1216 19.0877 18 19.7832 18Z" fill="#F9C23C"/>
<path d="M4.78311 18H14.2169C14.9123 18 15.2621 17.1216 14.7699 16.6081L12.5894 14.3356C10.8824 12.5548 8.11551 12.5548 6.40847 14.3356L4.23015 16.6081C3.73793 17.1216 4.08772 18 4.78311 18Z" fill="#F9C23C"/>
<path d="M16.6996 2.02862C21.6199 1.32094 24.6595 13.9257 22.4448 19.0193C20.23 24.1129 15.4479 25.2295 10.3749 27.2233C9.81404 27.4437 9.23663 27.5475 8.66954 27.5475C6.74555 27.5475 5.70003 29.1302 4.97003 27.1725C4.02762 24.6384 5.26285 21.7971 7.7292 20.8288C10.4141 19.7757 11.8411 17.7523 12.9155 15.0105C14.0105 12.2158 14.0848 11.0696 14.0806 8.02272C14.0765 5.58609 13.9157 2.42907 16.6996 2.02862Z" fill="#FEEFC2"/>
<path d="M22.4448 19.0193L12.9857 14.6758C11.8989 17.1739 9.9316 19.0871 7.44463 20.066C4.5638 21.1975 2.63774 24.2951 4.21529 27.4522C7.36627 33.7556 22.4448 27.3865 22.4448 19.0193Z" fill="#FCD53F"/>
<path fill-rule="evenodd" clip-rule="evenodd" d="M18.24 16.4818C18.6346 16.6078 18.8523 17.0299 18.7263 17.4244C16.7458 23.6254 10.9695 26.4892 5.80817 26.7536C5.3945 26.7748 5.04197 26.4566 5.02078 26.043C4.99958 25.6293 5.31775 25.2768 5.73142 25.2556C10.4687 25.0128 15.5612 22.4042 17.2974 16.9681C17.4234 16.5735 17.8455 16.3558 18.24 16.4818Z" fill="#F9C23C"/>
<path d="M23.2406 26.467L13.0432 14.6864H22.0466C24.1727 14.7945 25.841 16.5976 25.841 18.7842V26.3356C25.841 27.6658 24.6437 28.072 23.2406 26.467Z" fill="#FFF478"/>
</svg>

<svg xmlns="http://www.w3.org/2000/svg" width="32" height="32" fill="none"><path fill="#F3AD61" d="M2 26.431c0-.73.592-1.321 1.322-1.321h.99a1.322 1.322 0 0 1 0 2.643h-.99c-.73 0-1.322-.592-1.322-1.322Z"/><path fill="#F9C23C" d="M19.783 18h9.434c.696 0 1.046-.876.551-1.392l-2.178-2.272a4.244 4.244 0 0 0-6.181 0l-2.179 2.272c-.492.514-.142 1.392.553 1.392ZM4.783 18h9.434c.695 0 1.045-.878.553-1.392l-2.18-2.272a4.243 4.243 0 0 0-6.182 0L4.23 16.608c-.492.514-.142 1.392.553 1.392Z"/><path fill="#FEEFC2" d="M16.7 2.029c4.92-.708 7.96 11.897 5.745 16.99-2.215 5.094-6.997 6.21-12.07 8.204-.561.22-1.138.325-1.705.325-1.924 0-2.97 1.582-3.7-.375-.942-2.535.293-5.376 2.76-6.344 2.684-1.053 4.111-3.077 5.185-5.819 1.096-2.794 1.17-3.94 1.166-6.987-.005-2.437-.165-5.594 2.619-5.994Z"/><path fill="#FCD53F" d="m22.445 19.02-9.46-4.344c-1.086 2.498-3.053 4.411-5.54 5.39-2.881 1.132-4.807 4.23-3.23 7.386 3.151 6.304 18.23-.066 18.23-8.433Z"/><path fill="#F9C23C" fill-rule="evenodd" d="M18.24 16.482a.75.75 0 0 1 .486.942c-1.98 6.201-7.756 9.065-12.918 9.33a.75.75 0 0 1-.077-1.498c4.738-.243 9.83-2.852 11.566-8.288a.75.75 0 0 1 .943-.486Z" clip-rule="evenodd"/><path fill="#FFF478" d="m23.24 26.467-10.197-11.78h9.004c2.126.107 3.794 1.91 3.794 4.097v7.552c0 1.33-1.197 1.736-2.6.131Z"/></svg>
